stuff/config/qss/Default/imgs/black/tree17_branch-closed.svg

<?xml version="1.0" encoding="UTF-8" standalone="no"?><!DOCTYPE svg PUBLIC "-//W3C//DTD SVG 1.1//EN" "http://www.w3.org/Graphics/SVG/1.1/DTD/svg11.dtd"><svg width="100%" height="100%" viewBox="0 0 14 17" version="1.1" xmlns="http://www.w3.org/2000/svg" xmlns:xlink="http://www.w3.org/1999/xlink" xml:space="preserve" style="fill-rule:evenodd;clip-rule:evenodd;stroke-linejoin:round;stroke-miterlimit:1.41421;"><path d="M7,14.012l0,2.988l-1,0l0,-3l-4,0l0,-9l4,0l0,-5l1,0l0,5l4,0l0,4l3,0l0,1l-3,0l0,4c-1.333,0 -2.667,0.036 -4,0.012Zm3,-5.511l0,-2.501l-7,0l0,7l7,0c0,-1.5 0,-4.499 0,-4.499Z"/><path d="M7,9l2,0l0,1l-2,0l0,2l-1,0l0,-2l-2,0l0,-1l2,0l0,-2l1,0l0,2Z"/></svg>

<?xml version="1.0" encoding="utf-8"?>
<!-- Generator: Adobe Illustrator 21.0.2, SVG Export Plug-In . SVG Version: 6.00 Build 0)  -->
<svg version="1.1"
	 id="svg2" inkscape:version="0.91 r13725" sodipodi:docname="tree17_branch-closed.svg" xmlns:cc="http://creativecommons.org/ns#" xmlns:dc="http://purl.org/dc/elements/1.1/" xmlns:inkscape="http://www.inkscape.org/namespaces/inkscape" xmlns:rdf="http://www.w3.org/1999/02/22-rdf-syntax-ns#" xmlns:sodipodi="http://sodipodi.sourceforge.net/DTD/sodipodi-0.dtd" xmlns:svg="http://www.w3.org/2000/svg"
	 xmlns="http://www.w3.org/2000/svg" xmlns:xlink="http://www.w3.org/1999/xlink" x="0px" y="0px" viewBox="0 0 14 17"
	 style="enable-background:new 0 0 14 17;" xml:space="preserve">
<path id="path4" inkscape:connector-curvature="0" d="M7,14v3H6v-3H2V5h4V0h1v5h4v4h3v1h-3v4C9.7,14,8.3,14,7,14z M10,8.5V6H3v7h7
	C10,11.5,10,8.5,10,8.5z"/>
<path id="path6" inkscape:connector-curvature="0" d="M7,9h2v1H7v2H6v-2H4V9h2V7h1V9z"/>
</svg>
